public/images/icons/Django.svg

<svg width="156" height="198" viewBox="0 0 156 198" fill="none" xmlns="http://www.w3.org/2000/svg">
<path d="M70.4482 46.9189L70.4836 1.87392C70.4836 1.5675 70.6372 1.41428 70.9445 1.41428L101.258 1.34357C101.944 1.34357 102.286 1.68535 102.286 2.36892V146.308C102.286 146.725 102.141 147.129 101.876 147.451C101.611 147.773 101.243 147.994 100.833 148.076C57.5782 156.667 -5.07003 157.445 1.94997 92.9893C5.6727 58.9757 35.88 44.1964 67.86 49.1464C69.5854 49.4057 70.4482 48.6632 70.4482 46.9189ZM71.37 124.669V77.6443C71.37 76.8285 71.045 76.046 70.4665 75.4692C69.8881 74.8923 69.1035 74.5682 68.2854 74.5682H58.0036C51.8822 74.5682 46.0114 77.1609 41.6829 81.7759C37.3544 86.3909 34.9227 92.6502 34.9227 99.1768V103.137C34.9227 109.663 37.3544 115.923 41.6829 120.538C46.0114 125.153 51.8822 127.745 58.0036 127.745H68.2854C68.6905 127.745 69.0916 127.666 69.4658 127.511C69.8401 127.357 70.1801 127.13 70.4665 126.844C70.753 126.559 70.9802 126.22 71.1352 125.846C71.2902 125.473 71.37 125.073 71.37 124.669Z" fill="#27AB78"/>
<path d="M150.576 1.41429H120.652C120.104 1.41429 119.659 1.85753 119.659 2.40429V33.0236C119.659 33.5703 120.104 34.0136 120.652 34.0136H150.576C151.124 34.0136 151.568 33.5703 151.568 33.0236V2.40429C151.568 1.85753 151.124 1.41429 150.576 1.41429Z" fill="#27AB78"/>
<path d="M119.978 196.126L92.0755 182.938C91.9967 182.894 91.9306 182.829 91.8855 182.751C91.8404 182.673 91.8184 182.585 91.8222 182.498C91.826 182.411 91.8554 182.329 91.9068 182.263C91.9582 182.196 92.0292 182.148 92.111 182.125C111.824 174.629 121.893 159.26 122.318 136.019C122.956 102.218 123.11 74.6154 122.779 53.2125C122.756 52.4582 123.134 52.0811 123.914 52.0811L153.412 52.0457C153.685 52.0457 153.946 52.15 154.139 52.3357C154.332 52.5213 154.44 52.7732 154.44 53.0357C154.913 88.8407 154.735 119.814 153.908 145.954C153.175 169.738 142.539 186.462 121.999 196.126C121.314 196.456 120.64 196.456 119.978 196.126Z" fill="#27AB78"/>
</svg>

<svg width="156" height="198" fill="none" xmlns="http://www.w3.org/2000/svg"><path d="m70.448 46.919.036-45.045c0-.307.153-.46.46-.46l30.314-.07c.686 0 1.028.341 1.028 1.025v143.939a1.81 1.81 0 0 1-1.453 1.768C57.578 156.667-5.07 157.445 1.95 92.989c3.723-34.013 33.93-48.793 65.91-43.843 1.725.26 2.588-.483 2.588-2.227Zm.922 77.75V77.644c0-.816-.325-1.598-.904-2.175a3.089 3.089 0 0 0-2.18-.9H58.003c-6.122 0-11.993 2.592-16.321 7.207-4.329 4.615-6.76 10.874-6.76 17.4v3.961c0 6.526 2.431 12.786 6.76 17.401 4.328 4.615 10.2 7.207 16.32 7.207h10.282a3.084 3.084 0 0 0 3.085-3.076ZM150.576 1.414h-29.924a.992.992 0 0 0-.993.99v30.62c0 .546.445.99.993.99h29.924a.991.991 0 0 0 .992-.99V2.404a.99.99 0 0 0-.992-.99Z" fill="#27AB78"/><path d="m119.978 196.126-27.902-13.188a.504.504 0 0 1-.19-.187.466.466 0 0 1-.064-.253.41.41 0 0 1 .085-.235.389.389 0 0 1 .204-.138c19.713-7.496 29.782-22.865 30.207-46.106.638-33.801.792-61.404.461-82.806-.023-.755.355-1.132 1.135-1.132l29.498-.035c.273 0 .534.104.727.29a.97.97 0 0 1 .301.7c.473 35.805.295 66.778-.532 92.918-.733 23.784-11.369 40.508-31.909 50.172-.685.33-1.359.33-2.021 0Z" fill="#27AB78"/></svg>
